static/assets/svgs/logo.svg

<?xml version="1.0" encoding="UTF-8" standalone="no"?>
<svg
   width="38.513718"
   height="39.390682"
   viewBox="0 0 38.513718 39.390682"
   fill="none"
   version="1.1"
   id="svg5"
   sodipodi:docname="logo.svg"
   inkscape:version="1.4.2 (ebf0e940, 2025-05-08)"
   xmlns:inkscape="http://www.inkscape.org/namespaces/inkscape"
   xmlns:sodipodi="http://sodipodi.sourceforge.net/DTD/sodipodi-0.dtd"
   xmlns="http://www.w3.org/2000/svg"
   xmlns:svg="http://www.w3.org/2000/svg">
  <sodipodi:namedview
     id="namedview5"
     pagecolor="#ffffff"
     bordercolor="#000000"
     borderopacity="0.25"
     inkscape:showpageshadow="2"
     inkscape:pageopacity="0.0"
     inkscape:pagecheckerboard="0"
     inkscape:deskcolor="#d1d1d1"
     inkscape:zoom="2.79"
     inkscape:cx="127.06093"
     inkscape:cy="19.892473"
     inkscape:window-width="1352"
     inkscape:window-height="766"
     inkscape:window-x="0"
     inkscape:window-y="38"
     inkscape:window-maximized="0"
     inkscape:current-layer="g1" />
  <g
     clip-path="url(#clip0_78_463)"
     id="g3"
     transform="translate(-0.988037)">
    <g
       clip-path="url(#clip1_78_463)"
       id="g1">
      <g
         clip-path="url(#clip2_78_463-3)"
         id="g2"
         transform="translate(-1.4862449,-0.609319)">
        <path
           d="M 8.05872,0 18.1331,5.7654 h 5.6746 L 33.9174,0 35.9383,2.02091 27.5421,10.417 c -0.5543,0.5544 -1.653,1.008 -2.4392,1.008 h -8.2247 c -0.7862,0 -1.8849,-0.4536 -2.4392,-1.008 L 6.0378,2.02091 Z M 35.9383,37.9791 27.5421,29.583 c -0.5543,-0.5544 -1.653,-1.008 -2.4392,-1.008 h -8.2247 c -0.7862,0 -1.8849,0.4536 -2.4392,1.008 L 6.04284,37.9791 8.06376,40 18.1734,34.2346 h 5.6747 L 33.9224,40 Z M 30.571,13.4459 c -0.5544,0.5544 -1.0079,1.653 -1.0079,2.4392 v 8.2248 c 0,0.7862 0.4535,1.8848 1.0079,2.4392 l 8.3961,8.3961 2.0209,-2.0209 -5.7654,-10.1096 V 17.14 L 40.988,7.06564 38.9671,5.04473 Z M 3.00895,34.9502 11.4051,26.5541 c 0.5543,-0.5544 1.0079,-1.653 1.0079,-2.4392 v -8.2248 c 0,-0.7862 -0.4536,-1.8848 -1.0079,-2.4392 L 3.00895,5.04977 0.988037,7.07068 6.75344,17.1803 V 22.855 L 0.988037,32.9293 Z"
           fill="#072024"
           id="path2" />
      </g>
    </g>
  </g>
  <defs
     id="defs5">
    <clipPath
       id="clip0_78_463">
      <rect
         width="254.98801"
         height="40"
         fill="#ffffff"
         transform="translate(0.988037)"
         id="rect3"
         x="0"
         y="0" />
    </clipPath>
    <clipPath
       id="clip1_78_463">
      <rect
         width="254.98801"
         height="40"
         fill="#ffffff"
         transform="translate(0.988037)"
         id="rect4"
         x="0"
         y="0" />
    </clipPath>
    <clipPath
       id="clip2_78_463">
      <rect
         width="40"
         height="40"
         fill="#ffffff"
         transform="translate(0.988037)"
         id="rect5"
         x="0"
         y="0" />
    </clipPath>
    <clipPath
       id="clip2_78_463-3">
      <rect
         width="40"
         height="40"
         fill="#ffffff"
         transform="translate(0.988037)"
         id="rect5-8"
         x="0"
         y="0" />
    </clipPath>
  </defs>
</svg>

<svg width="256" height="40" viewBox="0 0 256 40" fill="none" xmlns="http://www.w3.org/2000/svg">
<g clip-path="url(#clip0_78_463)">
<g clip-path="url(#clip1_78_463)">
<path d="M88.3209 12.856C92.2619 12.856 95.4621 16.0613 95.4621 19.9973C95.4621 23.9333 92.2568 27.1385 88.3209 27.1385C84.3849 27.1385 81.1796 23.9333 81.1796 19.9973C81.1796 16.0613 84.3849 12.856 88.3209 12.856ZM88.3209 8.5723C82.0112 8.5723 76.8908 13.6876 76.8908 20.0023C76.8908 26.317 82.0061 31.4323 88.3209 31.4323C94.6356 31.4323 99.7509 26.317 99.7509 20.0023C99.7509 13.6876 94.6356 8.5723 88.3209 8.5723ZM228.853 12.856C232.794 12.856 235.994 16.0613 235.994 19.9973C235.994 23.9333 232.789 27.1385 228.853 27.1385C224.917 27.1385 221.711 23.9333 221.711 19.9973C221.711 16.0613 224.917 12.856 228.853 12.856ZM228.853 8.5723C222.543 8.5723 217.423 13.6876 217.423 20.0023C217.423 26.317 222.538 31.4323 228.853 31.4323C235.167 31.4323 240.283 26.317 240.283 20.0023C240.283 13.6876 235.167 8.5723 228.853 8.5723ZM70.1074 23.4293C68.8929 25.6417 66.5393 27.1436 63.8431 27.1436C59.9021 27.1436 56.7019 23.9383 56.7019 20.0023C56.7019 16.0663 59.9071 12.8611 63.8431 12.8611C66.5393 12.8611 68.8929 14.3629 70.1074 16.5753H74.749C73.2925 11.9388 68.9634 8.57734 63.8431 8.57734C57.5334 8.57734 52.4131 13.6926 52.4131 20.0074C52.4131 26.3221 57.5284 31.4374 63.8431 31.4374C68.9584 31.4374 73.2925 28.0759 74.749 23.4394L70.1074 23.4293ZM144.75 1.42603V11.077C142.795 9.50968 140.31 8.56726 137.609 8.56726C131.299 8.56726 126.179 13.6825 126.179 19.9973C126.179 26.312 131.294 31.4273 137.609 31.4273C140.31 31.4273 142.795 30.4849 144.75 28.9175V31.4273H149.034V1.42603H144.75ZM137.609 27.5014C133.663 27.5014 130.468 24.1449 130.468 20.0023C130.468 15.8597 133.668 12.5033 137.609 12.5033C141.55 12.5033 144.75 15.8597 144.75 20.0023C144.75 24.1449 141.55 27.5014 137.609 27.5014ZM123.321 17.8856C123.321 11.959 118.73 8.5723 114.033 8.5723C111.584 8.5723 108.409 9.82215 106.892 11.4348V8.5723H102.608V31.4273H106.892V16.5552C108.248 14.4183 110.879 12.856 113.676 12.856C116.473 12.856 119.033 14.8971 119.033 18.571L119.174 31.4273H123.316L123.321 17.8856ZM152.894 22.1139C152.894 28.0406 157.486 31.4273 162.183 31.4273C164.632 31.4273 167.807 30.1774 169.324 28.5647V31.4273H173.607V8.5723H169.324V23.4444C167.968 25.5813 165.337 27.1436 162.54 27.1436C159.743 27.1436 157.183 25.1025 157.183 21.4285L157.042 8.5723H152.899L152.894 22.1139ZM198.161 8.5723H192.622L185.017 17.8604H181.747V1.42603H177.463V31.4273H181.747V22.1391H185.017L192.622 31.4273H198.161L188.802 19.9973L198.161 8.5723ZM215.306 12.856V8.5723H208.165V2.8573H203.881V8.5723H199.597V12.856H203.881V27.1637C203.896 29.5172 205.806 31.4273 208.165 31.4273H215.286V27.1436H208.165V12.856H215.306ZM255.976 8.5723H247.429C245.07 8.5723 243.155 10.4773 243.145 12.8359V31.4323H247.429V12.856H255.976V8.5723Z" fill="#072024"/>
</g>
<g clip-path="url(#clip2_78_463)">
<path d="M8.05872 0L18.1331 5.7654H23.8077L33.9174 0L35.9383 2.02091L27.5421 10.417C26.9878 10.9714 25.8891 11.425 25.1029 11.425H16.8782C16.092 11.425 14.9933 10.9714 14.439 10.417L6.0378 2.02091L8.05872 0ZM35.9383 37.9791L27.5421 29.583C26.9878 29.0286 25.8891 28.575 25.1029 28.575H16.8782C16.092 28.575 14.9933 29.0286 14.439 29.583L6.04284 37.9791L8.06376 40L18.1734 34.2346H23.8481L33.9224 40L35.9383 37.9791ZM30.571 13.4459C30.0166 14.0003 29.5631 15.0989 29.5631 15.8851V24.1099C29.5631 24.8961 30.0166 25.9947 30.571 26.5491L38.9671 34.9452L40.988 32.9243L35.2226 22.8147V17.14L40.988 7.06564L38.9671 5.04473L30.571 13.4459ZM3.00895 34.9502L11.4051 26.5541C11.9594 25.9997 12.413 24.9011 12.413 24.1149V15.8901C12.413 15.1039 11.9594 14.0053 11.4051 13.4509L3.00895 5.04977L0.988037 7.07068L6.75344 17.1803V22.855L0.988037 32.9293L3.00895 34.9502Z" fill="#072024"/>
</g>
</g>
<defs>
<clipPath id="clip0_78_463">
<rect width="254.988" height="40" fill="white" transform="translate(0.988037)"/>
</clipPath>
<clipPath id="clip1_78_463">
<rect width="254.988" height="40" fill="white" transform="translate(0.988037)"/>
</clipPath>
<clipPath id="clip2_78_463">
<rect width="40" height="40" fill="white" transform="translate(0.988037)"/>
</clipPath>
</defs>
</svg>
